assets/azurebusinessprocesstracking/original.svg

<svg height="18" viewBox="0 0 18 18" width="18" xmlns="http://www.w3.org/2000/svg"><path d="m14.609 11.297-5.609 1.781-5.609-1.781c-.34-.108-.691.133-.691.474v3.869c0 .215.145.406.359.474l5.941 1.886 5.941-1.886a.5.5 0 0 0 .359-.474v-3.869c0-.341-.351-.582-.691-.474" fill="#76d263"/><path d="m15.3 9.641v-3.869c0-.341-.351-.582-.691-.474l-5.609 1.781-5.609-1.781c-.34-.108-.691.133-.691.474v3.869c0 .215.145.406.359.474l5.941 1.886 5.941-1.886a.5.5 0 0 0 .359-.474" fill="#399a91"/><path d="m2.7 3.64v-3.14c0-.276.235-.5.525-.5h11.55c.29 0 .525.224.525.5v3.14a.5.5 0 0 1 -.359.474l-5.941 1.886-5.941-1.886a.5.5 0 0 1 -.359-.474" fill="#225b62"/></svg>

<svg xmlns="http://www.w3.org/2000/svg" id="uuid-0c31b75c-7043-4fa6-ac60-2d6adbc0732c" width="18" height="18" viewBox="0 0 18 18"><path fill="#76d263" d="M14.609 11.297 9 13.078l-5.609-1.781c-.34-.108-.691.133-.691.474v3.869c0 .215.145.406.359.474L9 18l5.941-1.886a.5.5 0 0 0 .359-.474v-3.869c0-.341-.351-.582-.691-.474"/><path fill="#399a91" d="M15.3 9.641V5.772c0-.341-.351-.582-.691-.474L9 7.079 3.391 5.298c-.34-.108-.691.133-.691.474v3.869c0 .215.145.406.359.474L9 12.001l5.941-1.886a.5.5 0 0 0 .359-.474"/><path fill="#225b62" d="M2.7 3.64V.5c0-.276.235-.5.525-.5h11.55c.29 0 .525.224.525.5v3.14a.5.5 0 0 1-.359.474L9 6 3.059 4.114A.5.5 0 0 1 2.7 3.64"/></svg>
